GeneralPlan/dist/assets/img/footer-mail-icon.svg

<svg width="16" height="13" viewBox="0 0 16 13" fill="none" xmlns="http://www.w3.org/2000/svg">
<path d="M4.9131 6.70671C4.9131 6.49973 4.9131 6.49973 4.9131 6.70671L0.466472 4.2229C0.466472 4.2229 0.466472 4.2229 0.244141 4.2229V10.2254C0.244141 10.2254 0.244141 10.2254 0.244141 10.4324L4.9131 6.70671Z" fill="white"/>
<path d="M15.1404 0.70459H0.688805C0.688805 0.70459 0.466473 0.70459 0.466473 0.911568C0.244141 0.911568 0.244141 1.11855 0.244141 1.11855V2.77437L7.80343 6.70694L15.3627 2.77437C15.3627 2.77437 15.5851 2.77437 15.5851 2.56739V1.11855C15.5851 0.911568 15.5851 0.911568 15.3627 0.70459C15.3627 0.70459 15.3627 0.70459 15.1404 0.70459Z" fill="white"/>
<path d="M15.3626 4.2229L11.3606 6.49958L15.5849 10.639C15.5849 10.639 15.5849 10.639 15.5849 10.432L15.3626 4.2229C15.5849 4.2229 15.5849 4.2229 15.3626 4.2229Z" fill="white"/>
<path d="M10.0261 7.12109L8.24749 7.94902C8.02515 8.15601 7.80282 8.15601 7.58049 7.94902L6.2465 7.32808H6.02417L0.465866 12.0887C0.465866 12.0887 0.465866 12.0887 0.465866 12.2957C0.688198 12.2957 0.688198 12.2957 0.688198 12.2957H14.9174C14.9174 12.2957 14.9174 12.2957 15.1398 12.2957V12.0887L10.0261 7.12109Z" fill="white"/>
</svg>

<svg width="16" height="13" fill="none" xmlns="http://www.w3.org/2000/svg"><path d="M4.913 6.707c0-.207 0-.207 0 0L.466 4.223H.244v6.209l4.67-3.725zM15.14.705H.69s-.223 0-.223.207c-.222 0-.222.207-.222.207v1.655l7.56 3.933 7.559-3.933s.222 0 .222-.207V1.12c0-.207 0-.207-.222-.414h-.223zm.223 3.518L11.36 6.5l4.224 4.139v-.207l-.222-6.21c.222 0 .222 0 0 0zm-5.337 2.898l-1.779.828c-.222.207-.444.207-.667 0l-1.333-.62h-.223l-5.558 4.76v.207H15.14v-.207L10.026 7.12z" fill="#fff"/></svg>
